Origami/64x64/apps/git-cola.svg

<svg width="64" height="64" version="1.1" viewBox="0 0 64 64" xmlns="http://www.w3.org/2000/svg">
 <path d="m18 9-2 4v42l2 2v2h28v-2l2-2v-42l-2-4h-28z" style="opacity:.2"/>
 <path d="m18 8h28l2 4v42l-2 2h-28l-2-2v-42z" style="fill:#c2352a"/>
 <path d="m18 6h28v2h-28z" style="fill:#808080"/>
 <path d="m16 12h32v2h-32z" style="fill:#ffffff"/>
 <path d="m16 52h32v2h-32z" style="fill:#ffffff"/>
 <path d="m18 56h28v2h-28z" style="fill:#808080"/>
 <path d="M 17.9362,13.0394 35.272,31.3" style="fill:none;stroke-width:2;stroke:#ffffff"/>
 <path d="m27 22.044v15.9554" style="fill:none;stroke-width:2;stroke:#ffffff"/>
 <circle cx="37" cy="33" r="5" style="fill:#ffffff"/>
 <circle cx="27" cy="41" r="5" style="fill:#ffffff"/>
 <circle cx="27" cy="23" r="5" style="fill:#ffffff"/>
 <path d="m18 8l-2 4v1l2-4h28l2 4v-1l-2-4h-28z" style="fill:#ffffff;opacity:.1"/>
</svg>

<svg xmlns="http://www.w3.org/2000/svg" width="64" height="64" version="1.1" viewBox="0 0 64 64">
 <path style="opacity:0.2" d="m 18,9 -2,4 0,42 2,2 0,2 28,0 0,-2 2,-2 0,-42 -2,-4 -28,0 z"/>
 <path style="fill:#c2352a" d="m 18,8 28,0 2,4 0,42 -2,2 -28,0 -2,-2 0,-42 z"/>
 <path style="fill:#808080" d="M 18,6 46,6 46,8 18,8 Z"/>
 <path style="fill:#ffffff" d="m 16,12 32,0 0,2 -32,0 z"/>
 <path style="fill:#ffffff" d="m 16,52 32,0 0,2 -32,0 z"/>
 <path style="fill:#808080" d="m 18,56 28,0 0,2 -28,0 z"/>
 <path style="fill:none;stroke:#ffffff;stroke-width:2" d="M 17.9362,13.0394 35.272,31.3"/>
 <path style="fill:none;stroke:#ffffff;stroke-width:2" d="m 27,22.044 0,15.9554"/>
 <circle style="fill:#ffffff" cx="37" cy="33" r="5"/>
 <circle style="fill:#ffffff" cx="27" cy="41" r="5"/>
 <circle style="fill:#ffffff" cx="27" cy="23" r="5"/>
 <path style="opacity:0.1;fill:#ffffff" d="M 18 8 L 16 12 L 16 13 L 18 9 L 46 9 L 48 13 L 48 12 L 46 8 L 18 8 z"/>
</svg>
